app/assets/images/heroicons/micro/square-2-stack.svg

<svg width="16" height="16" viewBox="0 0 16 16" fill="none" xmlns="http://www.w3.org/2000/svg">
<path d="M5 6.5C5 5.67157 5.67157 5 6.5 5H12.5C13.3284 5 14 5.67157 14 6.5V12.5C14 13.3284 13.3284 14 12.5 14H6.5C5.67157 14 5 13.3284 5 12.5V6.5Z" fill="#0F172A"/>
<path d="M3.5 2C2.67157 2 2 2.67157 2 3.5V9.5C2 10.3284 2.67157 11 3.5 11L3.5 6.5C3.5 4.84315 4.84315 3.5 6.5 3.5H11C11 2.67157 10.3284 2 9.5 2H3.5Z" fill="#0F172A"/>
</svg>

<svg xmlns="http://www.w3.org/2000/svg" viewBox="0 0 16 16" fill="currentColor" aria-hidden="true" data-slot="icon">
  <path d="M5 6.5A1.5 1.5 0 0 1 6.5 5h6A1.5 1.5 0 0 1 14 6.5v6a1.5 1.5 0 0 1-1.5 1.5h-6A1.5 1.5 0 0 1 5 12.5v-6Z"/>
  <path d="M3.5 2A1.5 1.5 0 0 0 2 3.5v6A1.5 1.5 0 0 0 3.5 11V6.5a3 3 0 0 1 3-3H11A1.5 1.5 0 0 0 9.5 2h-6Z"/>
</svg>
